X: 36076
T: Scatter The Mud
R: jig
M: 6/8
K: Adorian
ecA B2 a|ecA BGE|ecA B2 A|dBG GBd|
ecA B2 a|ecA BGE|EGB dge|1 dBG A3:|2 dBG A2 d||
eaa egg|dBA ABd|eaa egg|dBG GBd|
e2 f g2 e|dBA AGE|EGB dge|1 dBG A2 d:|2 dBG A3||

